www/assets/icons/contactless.svg

<svg xmlns="http://www.w3.org/2000/svg" width="24" height="24" viewBox="0 0 24 24" fill='currentColor'><path d="M12 2C6.48 2 2 6.48 2 12s4.48 10 10 10 10-4.48 10-10S17.52 2 12 2M8.46 14.45l-1.36-.62c.28-.61.41-1.24.4-1.86a4.4 4.4 0 0 0-.4-1.8l1.36-.63c.35.75.53 1.56.54 2.4.01.86-.17 1.7-.54 2.51m3.07 1.56-1.3-.74c.52-.92.78-1.98.78-3.15 0-1.19-.27-2.33-.8-3.4l1.34-.67c.64 1.28.96 2.65.96 4.07 0 1.43-.33 2.74-.98 3.89m3.14 1.32-1.35-.66c.78-1.6 1.18-3.18 1.18-4.69s-.4-3.07-1.18-4.64l1.34-.67c.9 1.78 1.34 3.56 1.34 5.31 0 1.74-.44 3.54-1.33 5.35"/></svg>

<svg width="24" height="24" viewBox="0 0 24 24" xmlns="http://www.w3.org/2000/svg" fill='currentColor'><path d="M12 2C6.48 2 2 6.48 2 12C2 17.52 6.48 22 12 22C17.52 22 22 17.52 22 12C22 6.48 17.52 2 12 2ZM8.46 14.45L7.1 13.83C7.38 13.22 7.51 12.59 7.5 11.97C7.49 11.34 7.36 10.73 7.1 10.17L8.46 9.54C8.81 10.29 8.99 11.1 9 11.94C9.01 12.8 8.83 13.64 8.46 14.45ZM11.53 16.01L10.23 15.27C10.75 14.35 11.01 13.29 11.01 12.12C11.01 10.93 10.74 9.79 10.21 8.72L11.55 8.05C12.19 9.33 12.51 10.7 12.51 12.12C12.51 13.55 12.18 14.86 11.53 16.01ZM14.67 17.33L13.32 16.67C14.1 15.07 14.5 13.49 14.5 11.98C14.5 10.47 14.1 8.91 13.32 7.34L14.66 6.67C15.56 8.45 16 10.23 16 11.98C16 13.72 15.56 15.52 14.67 17.33Z"/></svg>
